media/ufo-basic.svg

<svg height="140" viewBox="0 0 160 140" width="160" xmlns="http://www.w3.org/2000/svg"><path d="m80.0003751 86.7334649c-49.7318284 0-75.74639285-11.7686006-75.74639285-18.0767986 0-4.4595539 13.01778585-11.643307 38.20856325-15.4733915-1.5680463 3.8053259-2.6071584 7.8859978-2.9522786 12.1692402-.0165058.2010701-.0172561.4051412-.0307608.6069615 1.394736 4.7701621 18.9778626 8.5454776 40.520869 8.5454776 21.5430069 0 39.1261329-3.7753155 40.5208689-8.5454776-.013505-.2018203-.015005-.4058914-.030761-.6069615-.34587-4.2832424-1.384982-8.3639143-2.953029-12.1692402 25.190778 3.8300845 38.209314 11.0138376 38.209314 15.4733915 0 6.308198-26.014564 18.0767986-75.7463929 18.0767986zm-45.4936016 3.7190459-5.3388603 5.2435771c-.0030011-.0412644-.0292602-.0847796-.0292602-.1267942 0-1.3242114 1.512527-3.1886111 5.3681205-5.1167829zm-.8342907 9.8179212c-1.5680464-.8507967-2.7714657-1.7120968-3.5232277-2.5568912l9.5320714-9.3625122c.2783469-.0937827.5551934-.1875654.8462948-.2805978 1.5838019.2528381 3.1841095.4981736 4.8354349.720251zm6.4379932 2.676932c-1.658828-.542439-3.1143352-1.107385-4.4115372-1.685837l12.3530543-12.1317271c1.8043787.2198266 3.6432695.4201464 5.5136712.6032102zm7.192006 1.933424c-1.7368552-.385634-3.3761764-.793026-4.8797003-1.223676l13.913598-13.6637612c1.8681509.1613062 3.7730647.2978538 5.6974852.4208967zm7.7104366 1.426997c-1.822385-.274595-3.5689936-.571699-5.2165677-.895062l15.0997613-14.8289165c1.934174.1035361 3.8923563.1868151 5.8722962.2505874zm8.1583426.985844c-1.9094153-.177062-3.7325505-.387135-5.4986659-.617465l16.0518431-15.7644932c2.0001969.0435151 4.0153991.0720251 6.0538594.0735256zm8.5889928.562696c-1.9874425-.08478-3.9148641-.197319-5.7807643-.339118l16.852372-16.5500169c2.1074844-.0210073 4.1939614-.0622717 6.25643-.1275444zm9.2724808.181563c-.3196113.001501-.6212164.013505-.9430786.013505-1.8501446 0-3.6492715-.030011-5.4138864-.077277l17.5621193-17.2477598c2.3063036-.0982842 4.5743439-.2288297 6.8108732-.381883zm9.439039-.270844c-2.0504645.111039-4.1782059.182313-6.3592158.226579l18.222349-17.8959859c2.306304-.186815 4.567592-.4013898 6.783114-.642974zm29.1206462-19.7116184c.029261.0082528.05702.0180062.08553.0277596l-19.187936 18.8435658c-2.1517493.249087-4.418289.454658-6.765857.625718l18.838314-18.499946c2.41059-.3008548 4.752906-.6347212 7.029949-.9970974zm-8.174848 17.1374714c-2.2958.474165-4.775414.902564-7.428338 1.277695l17.939501-17.6176385c1.670081.6159646 3.07157 1.2386816 4.239727 1.8523954zm19.533056-10.1847989-6.28494 6.1724009c-2.442851 1.105135-5.556436 2.160753-9.289737 3.105332l12.686921-12.4603418c1.732354 1.168157 2.627415 2.2665397 2.887756 3.1826089zm-74.7350404-51.329135c3.9051107-3.7250479 8.4291871-5.3216042 10.1037706-3.5652422 1.6753337 1.756362-.1327963 6.1994101-4.037907 9.924458-3.9051107 3.725048-8.4284368 5.3216043-10.1037705 3.5652423-1.6745835-1.756362.1327962-6.1994101 4.0379069-9.9244581zm103.7844124 24.9777032c0-8.7938141-18.220099-16.3977136-44.693073-20.0387322-6.981933-12.2982852-20.1505209-20.6179341-35.3065519-20.6179341-15.1560309 0-28.3246193 8.3196489-35.3073024 20.6179341-26.4722239 3.6410186-44.6930727 11.2449181-44.6930727 20.0387322 0 7.3578137 12.7762017 13.8745844 32.4458053 17.9417516-5.0830211 2.5643935-7.688679 5.5639387-7.688679 8.9708758 0 11.0716073 27.8354489 16.8643763 55.3325299 16.8643763 27.4970808 0 55.3347808-5.792769 55.3347808-16.8643763 0-3.4181911-2.627416-6.4244886-7.738196-8.9918831 19.600579-4.069418 32.313759-10.5779358 32.313759-17.9207443z" fill="#ffec00" fill-rule="evenodd"/></svg>

<?xml version="1.0" encoding="UTF-8"?>
<svg width="160px" height="140px" viewBox="0 0 160 140" version="1.1" xmlns="http://www.w3.org/2000/svg" xmlns:xlink="http://www.w3.org/1999/xlink">
    <!-- Generator: Sketch 50.2 (55047) - http://www.bohemiancoding.com/sketch -->
    <title>ufo-basic</title>
    <desc>Created with Sketch.</desc>
    <defs></defs>
    <g id="ufo-basic" stroke="none" stroke-width="1" fill="none" fill-rule="evenodd">
        <path d="M80.0003751,86.7334649 C30.2685467,86.7334649 4.25398225,74.9648643 4.25398225,68.6566663 C4.25398225,64.1971124 17.2717681,57.0133593 42.4625455,53.1832748 C40.8944992,56.9886007 39.8553871,61.0692726 39.5102669,65.352515 C39.4937611,65.5535851 39.4930108,65.7576562 39.4795061,65.9594765 C40.8742421,70.7296386 58.4573687,74.5049541 80.0003751,74.5049541 C101.543382,74.5049541 119.126508,70.7296386 120.521244,65.9594765 C120.507739,65.7576562 120.506239,65.5535851 120.490483,65.352515 C120.144613,61.0692726 119.105501,56.9886007 117.537454,53.1832748 C142.728232,57.0133593 155.746768,64.1971124 155.746768,68.6566663 C155.746768,74.9648643 129.732204,86.7334649 80.0003751,86.7334649 Z M34.5067735,90.4525108 L29.1679132,95.6960879 C29.1649121,95.6548235 29.138653,95.6113083 29.138653,95.5692937 C29.138653,94.2450823 30.65118,92.3806826 34.5067735,90.4525108 Z M33.6724828,100.270432 C32.1044364,99.4196353 30.9010171,98.5583352 30.1492551,97.7135408 L39.6813265,88.3510286 C39.9596734,88.2572459 40.2365199,88.1634632 40.5276213,88.0704308 C42.1114232,88.3232689 43.7117308,88.5686044 45.3630562,88.7906818 L33.6724828,100.270432 Z M40.110476,102.947364 C38.451648,102.404925 36.9961408,101.839979 35.6989388,101.261527 L48.0519931,89.1297999 C49.8563718,89.3496265 51.6952626,89.5499463 53.5656643,89.7330101 L40.110476,102.947364 Z M47.302482,104.880788 C45.5656268,104.495154 43.9263056,104.087762 42.4227817,103.657112 L56.3363797,89.9933508 C58.2045306,90.154657 60.1094444,90.2912046 62.0338649,90.4142475 L47.302482,104.880788 Z M55.0129186,106.307785 C53.1905336,106.03319 51.443925,105.736086 49.7963509,105.412723 L64.8961122,90.5838065 C66.8302862,90.6873426 68.7884685,90.7706216 70.7684084,90.8343939 L55.0129186,106.307785 Z M63.1712612,107.293629 C61.2618459,107.116567 59.4387107,106.906494 57.6725953,106.676164 L73.7244384,90.9116708 C75.7246353,90.9551859 77.7398375,90.9836959 79.7782978,90.9851964 L63.1712612,107.293629 Z M71.760254,107.856325 C69.7728115,107.771545 67.8453899,107.659006 65.9794897,107.517207 L82.8318617,90.9671901 C84.9393461,90.9461828 87.0258231,90.9049184 89.0882917,90.8396457 L71.760254,107.856325 Z M81.0327348,108.037888 C80.7131235,108.039389 80.4115184,108.051393 80.0896562,108.051393 C78.2395116,108.051393 76.4403847,108.021382 74.6757698,107.974116 L92.2378891,90.7263562 C94.5441927,90.628072 96.812233,90.4975265 99.0487623,90.3444732 L81.0327348,108.037888 Z M90.4717738,107.767044 C88.4213093,107.878083 86.2935679,107.949357 84.112558,107.993623 L102.334907,90.0976371 C104.641211,89.9108221 106.902499,89.6962473 109.118021,89.4546631 L90.4717738,107.767044 Z M119.59242,88.0554256 C119.621681,88.0636784 119.64944,88.0734318 119.67795,88.0831852 L100.490014,106.926751 C98.3382647,107.175838 96.071725,107.381409 93.724157,107.552469 L112.562471,89.052523 C114.973061,88.7516682 117.315377,88.4178018 119.59242,88.0554256 Z M111.417572,105.192897 C109.121772,105.667062 106.642158,106.095461 103.989234,106.470592 L121.928735,88.8529535 C123.598816,89.4689181 125.000305,90.0916351 126.168462,90.7053489 L111.417572,105.192897 Z M130.950628,95.0080981 L124.665688,101.180499 C122.222837,102.285634 119.109252,103.341252 115.375951,104.285831 L128.062872,91.8254892 C129.795226,92.9936462 130.690287,94.0920289 130.950628,95.0080981 Z M56.2155876,43.6789631 C60.1206983,39.9539152 64.6447747,38.3573589 66.3193582,40.1137209 C67.9946919,41.8700829 66.1865619,46.313131 62.2814512,50.0381789 C58.3763405,53.7632269 53.8530144,55.3597832 52.1776807,53.6034212 C50.5030972,51.8470592 52.3104769,47.4040111 56.2155876,43.6789631 Z M160,68.6566663 C160,59.8628522 141.779901,52.2589527 115.306927,48.6179341 C108.324994,36.3196489 95.1564061,28 80.0003751,28 C64.8443442,28 51.6757558,36.3196489 44.6930727,48.6179341 C18.2208488,52.2589527 0,59.8628522 0,68.6566663 C0,76.01448 12.7762017,82.5312507 32.4458053,86.5984179 C27.3627842,89.1628114 24.7571263,92.1623566 24.7571263,95.5692937 C24.7571263,106.640901 52.5925752,112.43367 80.0896562,112.43367 C107.586737,112.43367 135.424437,106.640901 135.424437,95.5692937 C135.424437,92.1511026 132.797021,89.1448051 127.686241,86.5774106 C147.28682,82.5079926 160,75.9994748 160,68.6566663 Z" fill="#FFEC00"></path>
    </g>
</svg>
